X:1373
T:An Ugly Customer
R:Reel
N:Collected by Kissane
B:O'Neill's 1373
Z:Transcribed by Trish O'Neil
M:C|
L:1/8
K:A
EAcA eAcA|EAce dBB2|EAcA eAcA|afed cABG|
EAcA eAcA|EAce dBBg|bagae faec|dBed cA A||
e|bagae fefg|afec dBBe|bagae faec|dBed cAAe|
bagae faec|edBcA BFF2|EFED EFAB|cdBd cAA2|]
